X: 66
T: No_6_Song_to_the_Birds.krn
N: Derived from No_6_Song_to_the_Birds.krn
%%abc-version 2.0
%%abcx-abcm2ps-target-version 5.9.1 (29 Sep 2008)
%%abc-creator hum2abc beta
%%abcx-conversion-date 2019/03/15 08:25:35
%%humdrum-veritas 1679198063
%%humdrum-veritas-data 1282259252
%%linebreak <none>
%%barnumbers 0
L: 1/8
M: 2/4
K: D clef=bass
[K:clef=bass][M:2/4]B,2D2 [I:setbarnb 2]| 
DC DB, | 
DC DB, | 
C2C2 | 
CF,F,2 | 
C2C2 | 
D/B,3/ B,/F,3/ | 
B,B, B, z | 
B,2B,2 | 
B,F, F, z | 
F,2C2 | 
D/C3/ C/B,3/ | 
C2C3/B,/ | 
C2CB, | 
C2CB, | 
CC CB, | 
CF,F,2 | 
D2C2 | 
D/B,3/ B,/F,3/ | 
B,B, B,F, | 
B,2B,2 | 
B,F, F, z :|]  



